X:63
T:A'Kinang8met,
T:Thras O'Kuezi
R:slide
H:Sellingle fated with songleot , The Rode Eally's
R


*****************************


19800 4 0.8473778 

<startohtl
Wang end ceatains on to, five donkes
G2 fe | d2B d2B | c2B c2d | e2d e3 |
d2B B2A | B2A B2E | 


*****************************


19900 4 0.674367 

<startouth M:600
M:6/8
L:1/8
K:D
A2B c2d | edf cae | e2A A=GE |1 A3 A2B :|2 d2d BAG ||
F B3 AFA |
F2N A2F


*****************************


20000 4 0.11499297 

<starh5
esdu a2 Sa2 | baa f2e g2 g2 ||
<end>
<start>
